!!!COM:	Bach, Johann Sebastian
!!!CDT:	1685/02/21/-1750/07/28/
!!!OTL@@DE:	Kommt her zu mir, spricht Gottes Sohn
!!!SCT:	BWV 74/8
!!!PC#:	370
!!!AGN:	chorale
**kern	**kern	**kern	**kern
*ICvox	*ICvox	*ICvox	*ICvox
*Ibass	*Itenor	*Ialto	*Isoprn
*I"Bass	*I"Tenor	*I"Alto	*I"Soprano
*	*oclefC4	*oclefC3	*oclefC1
*clefF4	*clefGv2	*clefG2	*clefG2
*k[]	*k[]	*k[]	*k[]
*a:	*a:	*a:	*a:
*M4/4	*M4/4	*M4/4	*M4/4
*met(c)	*met(c)	*met(c)	*met(c)
*MM100	*MM100	*MM100	*MM100
4AA	8cL	8eL	4a
.	8dJ	8fJ	.
=1	=1	=1	=1
4A	8cL	4e	4a
.	8BJ	.	.
4F	4A	8eL	4a
.	.	8dJ	.
4C	8AL	4e	4ee
.	8cJ	.	.
4D	8BL	4f	4dd
.	8AJ	.	.
=2	=2	=2	=2
4GG#	4B	4e	4ee
4AA	4A	4e	4cc
4E;	4G#X;	4e;	4b;
8CL	4A	4e	8aL
8BBJ	.	.	8bJ
=3	=3	=3	=3
4AA	4e	4a	4cc
4E	4e	4g#	4b
8AL	4e	4a	8ccL
8BJ	.	.	8ddJ
4c	4e	8gL	4ee
.	.	8aJ	.
=4	=4	=4	=4
4G#	4f	4b	4dd
4A	4e	4a	4cc
4E;	4e;	4g#;	4b;
8AL	4e	4a	8ccL
8GJ	.	.	8bJ
=5	=5	=5	=5
8F#L	4A	8dL	4a
8EJ	.	8eJ	.
8DL	4d	4f#	4a
8CJ	.	.	.
4BB	4d	4f#	8ddL
.	.	.	8ccJ
8EL	4e	4gnX	8bL
8CJ	.	.	8ccJ
=6	=6	=6	=6
2D	8dL	4g	2a
.	16cL	.	.
.	16BJJ	.	.
.	4c	4f#	.
4GG;	4B;	4d;	4g;
8CL	4c	8eL	4g
8DJ	.	8fJ	.
=7	=7	=7	=7
8EL	8GL	4g	4cc
8FJ	8AJ	.	.
8GL	8BL	4d	4b
8FJ	8AJ	.	.
4E	4G	8eL	8ccL
.	.	8fJ	8ddJ
8DL	4c	4g	4ee
8CJ	.	.	.
=8	=8	=8	=8
4BB	4d	4g#	4dd
4AA	4e	4a	4cc
4E;	4e;	4g#;	4b;
8AL	8cL	4e	8aL
8GnXJ	8BJ	.	8bJ
=9	=9	=9	=9
8F#L	4A	4d	4cc
8DJ	.	.	.
8GL	8BL	4d	4b
8FJ	8AJ	.	.
8EL	4G	8eL	8ccL
8DJ	.	8fJ	8ddJ
8CL	4c	4gnX	4ee
8BBJ	.	.	.
=10	=10	=10	=10
8AAL	8cL	4f	4dd
8GG#J	8BJ	.	.
4AA	8BL	4e	4cc
.	8AJ	.	.
4E;	4G#X;	4e;	4b;
4E	4B	4g#	4ee
=11	=11	=11	=11
8AL	4c	4a	4ee
8GnXJ	.	.	.
8FL	4c#	4gnX	4ee
8EJ	.	.	.
8FL	4.d	4.f	8ddL
8EJ	.	.	8ccnXJ
8DL	.	.	8bL
8CJ	8e	8e	8ccJ
=12	=12	=12	=12
8DL	4d	4f	8bL
8BBJ	.	.	8g#J
8CL	8cL	8eL	8aL
8DJ	8AJ	8fJ	8bJ
8EL	8G#	8eL	2b
8DJ	4A	8fJ	.
4E	.	8eL	.
.	8G#	8dJ	.
=13	=13	=13	=13
2.AA;	2.E;	2.c#;	2.a;
==	==	==	==
*-	*-	*-	*-
!!!YOR1: 371 vierstimmige Choralges&auml;nge von Johann Sebastian Bach, 
!!!YOR2: 4th ed. by Alfred D&ouml;rffel (Leipzig: Breitkopf und H&auml;rtel, 
!!!YOR2: c.1875). 178 pp. Plate "V.A.10".  reprint: J.S. Bach, 371 Four-Part 
!!!YOR4: Chorales (New York: Associated Music Publishers, Inc., c.1940).
!!!SMS: B&H, 4th ed, Alfred D&ouml;rffel, c.1875, plate V.A.10
!!!EED:  Craig Stuart Sapp
!!!EEV:  2009/05/22
